!!!OTL: MEIN KANAPEE IST MEIN VERGNUEGEN
!!!ARE: Europa, Mitteleuropa, Deutschland, Brandenburg
!!!SCT: B0710A
!!!YEM: Copyright 1995, estate of Helmut Schaffrath.
**kern
*ICvox
*Ivox
*M3/4
*k[b-]
*F:
{8c
=1
8c
8a
8g
8f
8e
8f
=2
8d
8b-
4g
8r}
{8f
=3
8e
8d
8c
8c
8dd
8cc
=4
8cc
8a
4f
8r}
{8c
=5
8c
8a
8g
8f
8e
8f
=6
8d
8b-
4g
8r}
{8f
=7
8e
8d
8c
8c
8dd
8cc
=8
8cc
8a
4f
8r}
{8a
=9
8g
8f
8e
8b-
8g
8c
=10
8cc
8b-
4a
8r}
{8f
=11
8g
8a
8b-
8dd
8cc
8e
=12
4f
8r}
{8a
8g
8f
=13
8e
8dd
8cc
8b-
8a
8g
=14
4f
8r}
{8f
8g
8a
=15
8b-
8dd
4cc
4e
=16
2f
8r}
==
!!!AGN: Scherz - Lied
!!!ONB: ESAC (Essen Associative Code) Database: BOEHME
!!!AMT: simple triple
!!!AIN: vox
!!!EED: Helmut Schaffrath
!!!EEV: 1.0
*-
